X:220
T:Newcastle Station
% Nottingham Music Database
S:via PR
M:4/4
L:1/4
K:G
d/2c/2|"G"B/2d/2G GB/2G/2|"D"F/2A/2D Dd/2c/2|"G"B/2d/2G G/2A/2B/2c/2|\
"G"d/2g/2f/2g/2 "D7"e/2c/2A/2F/2|
"G"B/2d/2G GB/2G/2|"D"F/2A/2D Dd/2c/2|"G"B/2d/2G/2B/2 "D7"c/2A/2F/2A/2|"G"GG G\
